pix/lsu/proctoru.svg

<?xml version="1.0" encoding="UTF-8" standalone="no"?><!DOCTYPE svg PUBLIC "-//W3C//DTD SVG 1.1//EN" "http://www.w3.org/Graphics/SVG/1.1/DTD/svg11.dtd"><svg width="100%" height="100%" viewBox="0 0 8892 8892" version="1.1" xmlns="http://www.w3.org/2000/svg" xmlns:xlink="http://www.w3.org/1999/xlink" xml:space="preserve" xmlns:serif="http://www.serif.com/" style="fill-rule:evenodd;clip-rule:evenodd;stroke-linejoin:round;stroke-miterlimit:2;"><g id="Layer-1" serif:id="Layer 1"><path d="M4164.19,2998.31l227.846,272.151c12.658,16.877 40.084,6.329 40.084,-14.768l0,-594.933c-69.619,126.581 -160.336,238.395 -267.93,337.55Z" style="fill:#fff;fill-rule:nonzero;"/><path d="M6809.74,7897.01l-0,-4240.48l-780.586,-0l0,2628.68c0,1012.65 -672.991,1833.32 -1702.52,1826.99c-1012.65,-8.439 -1658.22,-871.302 -1658.22,-1883.95l-0,-2016.86c-0,-305.906 -248.944,-554.849 -554.849,-554.849l-225.737,-0l0,2628.68c0,1462.02 1056.95,2645.55 2542.18,2605.47c689.869,-18.988 1149.78,-314.344 1601.26,-774.257c10.548,189.872 46.413,335.441 187.762,495.777c265.821,299.577 803.793,253.163 983.116,-46.413c-200.42,-35.864 -381.854,-198.311 -392.402,-668.772Z" style="fill:#0072b1;fill-rule:nonzero;"/><path d="M2119.9,1951.9c0,550.629 447.255,997.884 997.884,997.884c550.629,-0 997.884,-447.255 997.884,-997.884c-0,-550.629 -447.255,-997.884 -997.884,-997.884c-550.629,0 -997.884,447.255 -997.884,997.884Zm381.854,-0c0,-339.66 274.26,-613.92 613.92,-613.92c339.661,-0 613.92,274.26 613.92,613.92c0,339.66 -274.259,613.92 -613.92,613.92c-337.55,-0 -613.92,-274.26 -613.92,-613.92Z" style="fill:#fff;fill-rule:nonzero;"/><circle cx="3115.67" cy="1951.9" r="613.92" style="fill:#0072b1;"/><path d="M6921.56,510.986c71.73,-84.388 75.949,-189.872 75.949,-303.795c0,-145.569 -16.877,-238.395 -128.691,-191.982c0,-0 -1708.85,734.172 -2525.3,734.172c-816.45,0 -2525.3,-736.282 -2525.3,-736.282c-111.814,-44.303 -128.692,48.523 -128.692,191.982c0,113.923 4.22,219.408 75.949,303.795l356.538,424.048c-263.711,259.492 -428.267,620.249 -428.267,1018.98c-0,784.805 639.236,1424.04 1424.04,1424.04c312.234,0 601.262,-103.375 835.438,-274.26l314.343,386.074c18.988,23.206 48.523,31.645 73.84,31.645c25.316,0 54.852,-8.439 73.839,-31.645l314.344,-386.074c234.175,170.885 523.203,274.26 835.437,274.26c784.805,0 1424.04,-639.236 1424.04,-1424.04c0,-398.732 -164.555,-759.489 -430.376,-1016.87l362.866,-424.048Zm-3805.88,2438.8c-550.629,-0 -997.883,-447.255 -997.883,-997.884c-0,-550.629 447.254,-997.884 997.883,-997.884c550.63,0 997.884,447.255 997.884,997.884c0,550.629 -447.254,997.884 -997.884,997.884Zm3451.45,-997.884c0,550.629 -447.254,997.884 -997.883,997.884c-550.63,-0 -997.884,-447.255 -997.884,-997.884c-0,-550.629 447.254,-997.884 997.884,-997.884c550.629,0 997.883,447.255 997.883,997.884Z" style="fill:#0072b1;fill-rule:nonzero;"/><path d="M5569.24,954.021c-550.63,0 -997.884,447.255 -997.884,997.884c-0,550.629 447.254,997.884 997.884,997.884c550.629,-0 997.883,-447.255 997.883,-997.884c0,-550.629 -447.254,-997.884 -997.883,-997.884Zm-0,1611.8c-339.661,-0 -613.92,-274.26 -613.92,-613.92c-0,-339.66 274.259,-613.92 613.92,-613.92c339.66,-0 613.92,274.26 613.92,613.92c-0,339.66 -274.26,613.92 -613.92,613.92Z" style="fill:#fff;fill-rule:nonzero;"/><circle cx="5569.24" cy="1951.9" r="613.92" style="fill:#0072b1;"/><path d="M4092.46,2964.56l210.969,253.163c12.658,16.878 40.084,6.329 40.084,-14.768l0,-529.532c-71.729,107.594 -156.117,204.64 -251.053,291.137Z" style="fill:#fff;fill-rule:nonzero;"/></g></svg>

<?xml version="1.0" encoding="UTF-8" standalone="no"?>
<!DOCTYPE svg PUBLIC "-//W3C//DTD SVG 1.1//EN" "http://www.w3.org/Graphics/SVG/1.1/DTD/svg11.dtd">
<svg width="100%" height="100%" viewBox="0 0 512 512" version="1.1" xmlns="http://www.w3.org/2000/svg" xmlns:xlink="http://www.w3.org/1999/xlink" xml:space="preserve" xmlns:serif="http://www.serif.com/" style="fill-rule:evenodd;clip-rule:evenodd;stroke-linejoin:round;stroke-miterlimit:2;">
    <g transform="matrix(0.041134,0,0,0.041134,72.9611,73.9085)">
        <path d="M6809.74,7897.01L6809.74,3656.53L6029.15,3656.53L6029.15,6285.21C6029.15,7297.86 5356.16,8118.53 4326.63,8112.2C3313.98,8103.76 2668.41,7240.9 2668.41,6228.25L2668.41,4211.39C2668.41,3905.48 2419.47,3656.54 2113.57,3656.54L1887.83,3656.54L1887.83,6285.22C1887.83,7747.24 2944.78,8930.77 4430.01,8890.69C5119.88,8871.7 5579.79,8576.35 6031.27,8116.43C6041.82,8306.31 6077.68,8451.88 6219.03,8612.21C6484.85,8911.79 7022.82,8865.37 7202.15,8565.8C7001.73,8529.93 6820.29,8367.49 6809.74,7897.03L6809.74,7897.01Z" style="fill:rgb(70,29,124);fill-rule:nonzero;"/>
    </g>
    <path d="M357.672,94.927C360.623,91.456 360.796,87.117 360.796,82.431C360.796,76.443 360.102,72.625 355.503,74.534C355.503,74.534 285.211,104.734 251.627,104.734C218.043,104.734 147.752,74.447 147.752,74.447C143.152,72.625 142.458,76.443 142.458,82.344C142.458,87.03 142.632,91.369 145.582,94.841L160.248,112.283C149.4,122.957 142.632,137.797 142.632,154.198C142.632,186.48 168.926,212.775 201.208,212.775C214.051,212.775 225.94,208.522 235.573,201.493L248.503,217.374C249.284,218.328 250.499,218.676 251.54,218.676C252.582,218.676 253.797,218.328 254.578,217.374L267.508,201.493C277.14,208.522 289.029,212.775 301.873,212.775C334.155,212.775 360.449,186.48 360.449,154.198C360.449,137.797 353.68,122.957 342.746,112.37L357.672,94.927L357.672,94.927Z" style="fill:rgb(70,29,124);fill-rule:nonzero;"/>
    <g transform="matrix(0.041134,0,0,0.041134,72.9611,73.9085)">
        <path d="M5569.24,954.021C5018.61,954.021 4571.36,1401.28 4571.36,1951.9C4571.36,2502.53 5018.61,2949.79 5569.24,2949.79C6119.87,2949.79 6567.12,2502.53 6567.12,1951.9C6567.12,1401.28 6119.87,954.021 5569.24,954.021ZM5569.24,2565.82C5229.58,2565.82 4955.32,2291.56 4955.32,1951.9C4955.32,1612.24 5229.58,1337.98 5569.24,1337.98C5908.9,1337.98 6183.16,1612.24 6183.16,1951.9C6183.16,2291.56 5908.9,2565.82 5569.24,2565.82Z" style="fill:white;fill-rule:nonzero;"/>
    </g>
    <g transform="matrix(0.041134,0,0,0.041134,72.9611,73.9085)">
        <path d="M2119.9,1951.9C2119.9,2502.53 2567.16,2949.78 3117.78,2949.78C3668.41,2949.78 4115.67,2502.53 4115.67,1951.9C4115.67,1401.27 3668.41,954.016 3117.78,954.016C2567.16,954.016 2119.9,1401.27 2119.9,1951.9ZM2501.75,1951.9C2501.75,1612.24 2776.01,1337.98 3115.67,1337.98C3455.34,1337.98 3729.59,1612.24 3729.59,1951.9C3729.59,2291.56 3455.34,2565.82 3115.67,2565.82C2778.12,2565.82 2501.75,2291.56 2501.75,1951.9Z" style="fill:white;fill-rule:nonzero;"/>
    </g>
    <g transform="matrix(0.041134,0,0,0.041134,72.9611,73.9085)">
        <path d="M4092.46,2964.56L4303.43,3217.72C4316.09,3234.6 4343.51,3224.05 4343.51,3202.95L4343.51,2673.42C4271.78,2781.02 4187.4,2878.06 4092.46,2964.56Z" style="fill:white;fill-rule:nonzero;"/>
    </g>
</svg>
